X: 22731
T: Lamplighter
R: slip jig
M: 9/8
K: Amixolydian
e|Ace efd edB|Ace edB d3|Ace efd edB|Bg=c BAG A2A|Ace efd edB|Ace edB d3|
Ace efd edB|Bg=c BAG A2:|:d|efg agf g<ed|efg agf g2d|efg agf g<ed|
BAG GAB d2e|efg agf g<ed|efg agf g2d|efg agf g<ed|BAG GAB d2:|

